configs/network-icons/iota-evm-icon-dark.svg

<svg width="30" height="30" viewBox="0 0 30 30" fill="none" xmlns="http://www.w3.org/2000/svg">
<path fill-rule="evenodd" clip-rule="evenodd" d="M23.549 2.72395C23.549 3.67601 22.7752 4.44789 21.8206 4.44789C20.8661 4.44789 20.0922 3.67601 20.0922 2.72395C20.0922 1.77181 20.8661 1 21.8206 1C22.7752 1 23.549 1.77181 23.549 2.72395ZM25.4935 27.0749C25.4935 28.0271 24.7197 28.7989 23.7651 28.7989C22.8105 28.7989 22.0367 28.0271 22.0367 27.0749C22.0367 26.1228 22.8105 25.351 23.7651 25.351C24.7197 25.351 25.4935 26.1228 25.4935 27.0749ZM22.3147 8.7579C23.1158 8.7579 23.7653 8.11007 23.7653 7.31101C23.7653 6.51188 23.1158 5.86412 22.3147 5.86412C21.5136 5.86412 20.8641 6.51188 20.8641 7.31101C20.8641 8.11007 21.5136 8.7579 22.3147 8.7579ZM27.6236 7.86498C27.6236 8.66404 26.9741 9.31188 26.1729 9.31188C25.3718 9.31188 24.7223 8.66404 24.7223 7.86498C24.7223 7.06586 25.3718 6.41809 26.1729 6.41809C26.9741 6.41809 27.6236 7.06586 27.6236 7.86498ZM21.8207 12.4212C22.5026 12.4212 23.0553 11.8699 23.0553 11.1898C23.0553 10.5097 22.5026 9.9584 21.8207 9.9584C21.139 9.9584 20.5862 10.5097 20.5862 11.1898C20.5862 11.8699 21.139 12.4212 21.8207 12.4212ZM26.9136 11.7133C26.9136 12.3934 26.3608 12.9447 25.679 12.9447C24.9971 12.9447 24.4445 12.3934 24.4445 11.7133C24.4445 11.0333 24.9971 10.482 25.679 10.482C26.3608 10.482 26.9136 11.0333 26.9136 11.7133ZM28.7654 14.1451C29.4472 14.1451 29.9999 13.5938 29.9999 12.9137C29.9999 12.2336 29.4472 11.6823 28.7654 11.6823C28.0836 11.6823 27.5308 12.2336 27.5308 12.9137C27.5308 13.5938 28.0836 14.1451 28.7654 14.1451ZM25.6169 14.8225C25.6169 15.4175 25.1333 15.8999 24.5366 15.8999C23.94 15.8999 23.4564 15.4175 23.4564 14.8225C23.4564 14.2273 23.94 13.745 24.5366 13.745C25.1333 13.745 25.6169 14.2273 25.6169 14.8225ZM20.679 15.3764C21.2756 15.3764 21.7592 14.894 21.7592 14.2989C21.7592 13.7039 21.2756 13.2214 20.679 13.2214C20.0824 13.2214 19.5988 13.7039 19.5988 14.2989C19.5988 14.894 20.0824 15.3764 20.679 15.3764ZM28.7343 16.0228C28.7343 16.6179 28.2506 17.1003 27.6541 17.1003C27.0574 17.1003 26.5738 16.6179 26.5738 16.0228C26.5738 15.4278 27.0574 14.9454 27.6541 14.9454C28.2506 14.9454 28.7343 15.4278 28.7343 16.0228ZM22.9937 18.1468C23.5051 18.1468 23.9196 17.7333 23.9196 17.2233C23.9196 16.7132 23.5051 16.2997 22.9937 16.2997C22.4823 16.2997 22.0678 16.7132 22.0678 17.2233C22.0678 17.7333 22.4823 18.1468 22.9937 18.1468ZM27.0371 18.3932C27.0371 18.9033 26.6225 19.3168 26.1111 19.3168C25.5998 19.3168 25.1852 18.9033 25.1852 18.3932C25.1852 17.8832 25.5998 17.4697 26.1111 17.4697C26.6225 17.4697 27.0371 17.8832 27.0371 18.3932ZM19.1663 17.5926C19.6776 17.5926 20.0922 17.1792 20.0922 16.6691C20.0922 16.159 19.6776 15.7456 19.1663 15.7456C18.6549 15.7456 18.2403 16.159 18.2403 16.6691C18.2403 17.1792 18.6549 17.5926 19.1663 17.5926ZM22.0677 18.886C22.0677 19.3111 21.7223 19.6556 21.2961 19.6556C20.8699 19.6556 20.5245 19.3111 20.5245 18.886C20.5245 18.461 20.8699 18.1164 21.2961 18.1164C21.7223 18.1164 22.0677 18.461 22.0677 18.886ZM22.6229 21.7796C22.998 21.7796 23.302 21.4764 23.302 21.1023C23.302 20.7283 22.998 20.425 22.6229 20.425C22.248 20.425 21.944 20.7283 21.944 21.1023C21.944 21.4764 22.248 21.7796 22.6229 21.7796ZM21.5429 21.6568C21.5429 21.9629 21.2942 22.2109 20.9873 22.2109C20.6805 22.2109 20.4318 21.9629 20.4318 21.6568C20.4318 21.3508 20.6805 21.1027 20.9873 21.1027C21.2942 21.1027 21.5429 21.3508 21.5429 21.6568ZM19.5366 20.6099C19.9116 20.6099 20.2156 20.3066 20.2156 19.9326C20.2156 19.5586 19.9116 19.2554 19.5366 19.2554C19.1616 19.2554 18.8576 19.5586 18.8576 19.9326C18.8576 20.3066 19.1616 20.6099 19.5366 20.6099ZM18.2098 18.3626C18.2098 18.7877 17.8643 19.1322 17.4382 19.1322C17.012 19.1322 16.6665 18.7877 16.6665 18.3626C16.6665 17.9375 17.012 17.593 17.4382 17.593C17.8643 17.593 18.2098 17.9375 18.2098 18.3626ZM17.4071 13.3444C17.8333 13.3444 18.1788 12.9999 18.1788 12.5748C18.1788 12.1497 17.8333 11.8052 17.4071 11.8052C16.981 11.8052 16.6355 12.1497 16.6355 12.5748C16.6355 12.9999 16.981 13.3444 17.4071 13.3444ZM18.4256 9.95826C18.4256 10.3323 18.1216 10.6355 17.7466 10.6355C17.3716 10.6355 17.0676 10.3323 17.0676 9.95826C17.0676 9.5842 17.3716 9.28099 17.7466 9.28099C18.1216 9.28099 18.4256 9.5842 18.4256 9.95826ZM18.4874 8.41906C18.7942 8.41906 19.043 8.17097 19.043 7.86495C19.043 7.55887 18.7942 7.31077 18.4874 7.31077C18.1806 7.31077 17.9319 7.55887 17.9319 7.86495C17.9319 8.17097 18.1806 8.41906 18.4874 8.41906ZM17.8701 6.69524C17.8701 7.0693 17.5661 7.37251 17.1912 7.37251C16.8161 7.37251 16.5121 7.0693 16.5121 6.69524C16.5121 6.32124 16.8161 6.01797 17.1912 6.01797C17.5661 6.01797 17.8701 6.32124 17.8701 6.69524ZM24.3825 20.8252C24.8086 20.8252 25.1541 20.4806 25.1541 20.0555C25.1541 19.6305 24.8086 19.2859 24.3825 19.2859C23.9563 19.2859 23.6109 19.6305 23.6109 20.0555C23.6109 20.4806 23.9563 20.8252 24.3825 20.8252ZM16.2034 5.71005C16.2034 6.13505 15.858 6.47961 15.4318 6.47961C15.0057 6.47961 14.6602 6.13505 14.6602 5.71005C14.6602 5.28499 15.0057 4.94043 15.4318 4.94043C15.858 4.94043 16.2034 5.28499 16.2034 5.71005ZM15.9567 9.74284C16.3828 9.74284 16.7283 9.39822 16.7283 8.97322C16.7283 8.54816 16.3828 8.2036 15.9567 8.2036C15.5305 8.2036 15.1851 8.54816 15.1851 8.97322C15.1851 9.39822 15.5305 9.74284 15.9567 9.74284ZM16.0188 11.9284C16.0188 12.4385 15.6042 12.852 15.0928 12.852C14.5814 12.852 14.1669 12.4385 14.1669 11.9284C14.1669 11.4184 14.5814 11.0049 15.0928 11.0049C15.6042 11.0049 16.0188 11.4184 16.0188 11.9284ZM12.2838 12.8518C12.8804 12.8518 13.3641 12.3693 13.3641 11.7743C13.3641 11.1792 12.8804 10.6968 12.2838 10.6968C11.6872 10.6968 11.2036 11.1792 11.2036 11.7743C11.2036 12.3693 11.6872 12.8518 12.2838 12.8518ZM10.247 12.3597C10.247 13.0398 9.69429 13.5911 9.01244 13.5911C8.33065 13.5911 7.77791 13.0398 7.77791 12.3597C7.77791 11.6797 8.33065 11.1284 9.01244 11.1284C9.69429 11.1284 10.247 11.6797 10.247 12.3597ZM5.43211 15.346C6.2333 15.346 6.88277 14.6981 6.88277 13.8991C6.88277 13.0999 6.2333 12.4522 5.43211 12.4522C4.631 12.4522 3.98153 13.0999 3.98153 13.8991C3.98153 14.6981 4.631 15.346 5.43211 15.346ZM3.45672 16.577C3.45672 17.5291 2.68293 18.3009 1.72833 18.3009C0.773798 18.3009 0 17.5291 0 16.577C0 15.6249 0.773798 14.8531 1.72833 14.8531C2.68293 14.8531 3.45672 15.6249 3.45672 16.577ZM3.98165 11.7438C4.78284 11.7438 5.43224 11.096 5.43224 10.2969C5.43224 9.49777 4.78284 8.85001 3.98165 8.85001C3.18047 8.85001 2.53107 9.49777 2.53107 10.2969C2.53107 11.096 3.18047 11.7438 3.98165 11.7438ZM8.79584 8.75757C8.79584 9.43765 8.2431 9.98896 7.56125 9.98896C6.87946 9.98896 6.32671 9.43765 6.32671 8.75757C6.32671 8.0775 6.87946 7.52619 7.56125 7.52619C8.2431 7.52619 8.79584 8.0775 8.79584 8.75757ZM7.03688 6.72579C7.71874 6.72579 8.27141 6.17448 8.27141 5.4944C8.27141 4.81433 7.71874 4.26302 7.03688 4.26302C6.35502 4.26302 5.80228 4.81433 5.80228 5.4944C5.80228 6.17448 6.35502 6.72579 7.03688 6.72579ZM11.3887 4.90952C11.3887 5.50457 10.9051 5.98701 10.3084 5.98701C9.71182 5.98701 9.22822 5.50457 9.22822 4.90952C9.22822 4.31447 9.71182 3.83204 10.3084 3.83204C10.9051 3.83204 11.3887 4.31447 11.3887 4.90952ZM13.1169 5.98707C13.6283 5.98707 14.0428 5.57357 14.0428 5.06355C14.0428 4.55353 13.6283 4.14003 13.1169 4.14003C12.6056 4.14003 12.191 4.55353 12.191 5.06355C12.191 5.57357 12.6056 5.98707 13.1169 5.98707ZM14.5676 8.32628C14.5676 8.83637 14.153 9.2498 13.6416 9.2498C13.1303 9.2498 12.7157 8.83637 12.7157 8.32628C12.7157 7.81626 13.1303 7.40276 13.6416 7.40276C14.153 7.40276 14.5676 7.81626 14.5676 8.32628ZM10.8332 9.28096C11.4298 9.28096 11.9134 8.7986 11.9134 8.20355C11.9134 7.6085 11.4298 7.12607 10.8332 7.12607C10.2365 7.12607 9.75295 7.6085 9.75295 8.20355C9.75295 8.7986 10.2365 9.28096 10.8332 9.28096ZM8.33312 16.9156C8.33312 17.2216 8.08441 17.4697 7.77758 17.4697C7.47074 17.4697 7.22203 17.2216 7.22203 16.9156C7.22203 16.6095 7.47074 16.3615 7.77758 16.3615C8.08441 16.3615 8.33312 16.6095 8.33312 16.9156ZM9.99999 17.1927C10.375 17.1927 10.679 16.8895 10.679 16.5154C10.679 16.1414 10.375 15.8382 9.99999 15.8382C9.62497 15.8382 9.32094 16.1414 9.32094 16.5154C9.32094 16.8895 9.62497 17.1927 9.99999 17.1927ZM13.2096 15.4999C13.2096 15.9249 12.8641 16.2695 12.438 16.2695C12.0119 16.2695 11.6664 15.9249 11.6664 15.4999C11.6664 15.0748 12.0119 14.7302 12.438 14.7302C12.8641 14.7302 13.2096 15.0748 13.2096 15.4999ZM13.0243 18.7318C13.5357 18.7318 13.9503 18.3183 13.9503 17.8083C13.9503 17.2982 13.5357 16.8847 13.0243 16.8847C12.5129 16.8847 12.0984 17.2982 12.0984 17.8083C12.0984 18.3183 12.5129 18.7318 13.0243 18.7318ZM10.8333 18.547C10.8333 18.972 10.4878 19.3166 10.0617 19.3166C9.63553 19.3166 9.29008 18.972 9.29008 18.547C9.29008 18.122 9.63553 17.7774 10.0617 17.7774C10.4878 17.7774 10.8333 18.122 10.8333 18.547ZM7.438 19.2858C7.81302 19.2858 8.11705 18.9826 8.11705 18.6085C8.11705 18.2345 7.81302 17.9312 7.438 17.9312C7.06305 17.9312 6.75902 18.2345 6.75902 18.6085C6.75902 18.9826 7.06305 19.2858 7.438 19.2858ZM8.24022 20.6405C8.24022 21.0656 7.89478 21.4101 7.46862 21.4101C7.04246 21.4101 6.69701 21.0656 6.69701 20.6405C6.69701 20.2155 7.04246 19.8709 7.46862 19.8709C7.89478 19.8709 8.24022 20.2155 8.24022 20.6405ZM10.6171 21.8104C11.1285 21.8104 11.5431 21.3969 11.5431 20.8868C11.5431 20.3768 11.1285 19.9633 10.6171 19.9633C10.1058 19.9633 9.69123 20.3768 9.69123 20.8868C9.69123 21.3969 10.1058 21.8104 10.6171 21.8104ZM15.3704 20.3328C15.3704 20.9279 14.8867 21.4103 14.2901 21.4103C13.6936 21.4103 13.2099 20.9279 13.2099 20.3328C13.2099 19.7377 13.6936 19.2554 14.2901 19.2554C14.8867 19.2554 15.3704 19.7377 15.3704 20.3328ZM16.4504 24.0882C17.1322 24.0882 17.6849 23.5369 17.6849 22.8568C17.6849 22.1767 17.1322 21.6254 16.4504 21.6254C15.7685 21.6254 15.2158 22.1767 15.2158 22.8568C15.2158 23.5369 15.7685 24.0882 16.4504 24.0882ZM12.9936 23.3805C12.9936 23.9756 12.51 24.458 11.9133 24.458C11.3168 24.458 10.8331 23.9756 10.8331 23.3805C10.8331 22.7855 11.3168 22.3031 11.9133 22.3031C12.51 22.3031 12.9936 22.7855 12.9936 23.3805ZM9.35148 26.5511C9.94804 26.5511 10.4317 26.0687 10.4317 25.4736C10.4317 24.8785 9.94804 24.3962 9.35148 24.3962C8.75486 24.3962 8.27119 24.8785 8.27119 25.4736C8.27119 26.0687 8.75486 26.5511 9.35148 26.5511ZM12.7157 28.029C12.7157 28.7091 12.1629 29.2604 11.4811 29.2604C10.7993 29.2604 10.2465 28.7091 10.2465 28.029C10.2465 27.349 10.7993 26.7977 11.4811 26.7977C12.1629 26.7977 12.7157 27.349 12.7157 28.029ZM17.1604 29.7529C17.9616 29.7529 18.6111 29.1052 18.6111 28.3061C18.6111 27.507 17.9616 26.8592 17.1604 26.8592C16.3593 26.8592 15.7098 27.507 15.7098 28.3061C15.7098 29.1052 16.3593 29.7529 17.1604 29.7529ZM15.2774 25.9354C15.2774 26.6155 14.7247 27.1668 14.0428 27.1668C13.361 27.1668 12.8083 26.6155 12.8083 25.9354C12.8083 25.2553 13.361 24.704 14.0428 24.704C14.7247 24.704 15.2774 25.2553 15.2774 25.9354ZM19.537 26.6746C20.3381 26.6746 20.9875 26.0269 20.9875 25.2277C20.9875 24.4287 20.3381 23.7809 19.537 23.7809C18.7358 23.7809 18.0863 24.4287 18.0863 25.2277C18.0863 26.0269 18.7358 26.6746 19.537 26.6746ZM8.98114 22.9803C8.98114 23.4904 8.56662 23.9039 8.05522 23.9039C7.5439 23.9039 7.12931 23.4904 7.12931 22.9803C7.12931 22.4703 7.5439 22.0568 8.05522 22.0568C8.56662 22.0568 8.98114 22.4703 8.98114 22.9803Z" fill="white"/>
</svg>

<svg xmlns="http://www.w3.org/2000/svg" fill="none" viewBox="0 0 30 30">
  <path fill="#fff" fill-rule="evenodd" d="M23.549 2.724c0 .952-.774 1.724-1.728 1.724a1.726 1.726 0 0 1-1.729-1.724c0-.952.774-1.724 1.729-1.724.954 0 1.728.772 1.728 1.724Zm1.945 24.35c0 .953-.774 1.725-1.729 1.725a1.726 1.726 0 0 1-1.728-1.724c0-.952.774-1.724 1.728-1.724.955 0 1.729.772 1.729 1.724Zm-3.18-18.316c.802 0 1.451-.648 1.451-1.447 0-.8-.65-1.447-1.45-1.447a1.448 1.448 0 1 0 0 2.894Zm5.31-.893c0 .799-.65 1.447-1.451 1.447s-1.45-.648-1.45-1.447c0-.8.649-1.447 1.45-1.447.801 0 1.45.648 1.45 1.447Zm-5.803 4.556a1.232 1.232 0 1 0 0-2.463c-.682 0-1.235.552-1.235 1.232 0 .68.553 1.231 1.235 1.231Zm5.093-.708c0 .68-.553 1.232-1.235 1.232a1.233 1.233 0 0 1-1.234-1.232c0-.68.552-1.231 1.234-1.231.682 0 1.235.551 1.235 1.231Zm1.851 2.432c.682 0 1.235-.551 1.235-1.231a1.234 1.234 0 0 0-2.469 0c0 .68.553 1.231 1.234 1.231Zm-3.148.678c0 .595-.484 1.077-1.08 1.077a1.079 1.079 0 1 1 0-2.155c.596 0 1.08.482 1.08 1.078Zm-4.938.553a1.078 1.078 0 1 0 0-2.155 1.079 1.079 0 1 0 0 2.155Zm8.055.647c0 .595-.483 1.077-1.08 1.077a1.078 1.078 0 1 1 0-2.155c.597 0 1.08.483 1.08 1.078Zm-5.74 2.124a.925.925 0 1 0-.926-.924c0 .51.414.924.926.924Zm4.043.246a.925.925 0 1 1-1.854-.002.925.925 0 0 1 1.854.002Zm-7.87-.8a.925.925 0 1 0 0-1.847.925.925 0 1 0 0 1.847Zm2.9 1.293a.77.77 0 1 1-1.54-.002.77.77 0 0 1 1.54.002Zm.556 2.894a.678.678 0 1 0 .002-1.357.678.678 0 0 0-.002 1.357Zm-1.08-.123a.555.555 0 1 1-1.11-.002.555.555 0 0 1 1.11.002Zm-2.006-1.047a.678.678 0 1 0 .001-1.356.678.678 0 0 0-.001 1.356Zm-1.327-2.247a.77.77 0 1 1-1.541-.002.77.77 0 0 1 1.54.002Zm-.803-5.019a.77.77 0 1 0 .002-1.54.77.77 0 0 0-.002 1.54Zm1.019-3.386a.678.678 0 1 1-1.357-.001.678.678 0 0 1 1.357.001Zm.061-1.539a.555.555 0 1 0 .002-1.11.555.555 0 0 0-.002 1.11Zm-.617-1.724a.678.678 0 1 1-1.356-.001.678.678 0 0 1 1.356.001Zm6.512 14.13a.77.77 0 1 0 .002-1.541.77.77 0 0 0-.002 1.541ZM16.203 5.71a.77.77 0 1 1-1.54-.002.77.77 0 0 1 1.54.002Zm-.246 4.033a.77.77 0 1 0 .002-1.542.77.77 0 0 0-.002 1.542Zm.062 2.185a.925.925 0 1 1-1.854-.002.925.925 0 0 1 1.854.002Zm-3.735.924a1.079 1.079 0 1 0 0-2.155 1.078 1.078 0 1 0 0 2.155Zm-2.037-.492c0 .68-.553 1.231-1.235 1.231a1.233 1.233 0 0 1-1.234-1.231 1.234 1.234 0 0 1 2.469 0Zm-4.815 2.986a1.448 1.448 0 1 0 0-2.894 1.448 1.448 0 1 0 0 2.894Zm-1.975 1.231c0 .952-.774 1.724-1.729 1.724A1.726 1.726 0 0 1 0 16.577c0-.952.774-1.724 1.728-1.724.955 0 1.729.772 1.729 1.724Zm.525-4.833c.8 0 1.45-.648 1.45-1.447 0-.8-.65-1.447-1.45-1.447a1.448 1.448 0 1 0 0 2.894Zm4.814-2.986c0 .68-.553 1.231-1.235 1.231a1.233 1.233 0 0 1-1.234-1.231 1.234 1.234 0 0 1 2.469 0Zm-1.76-2.032a1.233 1.233 0 1 0 0-2.463c-.681 0-1.234.551-1.234 1.231s.553 1.232 1.235 1.232ZM11.39 4.91c0 .595-.484 1.077-1.08 1.077a1.078 1.078 0 1 1 0-2.155c.596 0 1.08.482 1.08 1.078Zm1.728 1.077a.925.925 0 1 0-.926-.923c0 .51.415.923.926.923Zm1.45 2.34a.925.925 0 1 1-1.854-.002.925.925 0 0 1 1.855.001Zm-3.734.954a1.078 1.078 0 1 0 0-2.155 1.079 1.079 0 1 0 0 2.155Zm-2.5 7.635a.555.555 0 1 1-1.11-.002.555.555 0 0 1 1.11.002Zm1.667.277a.678.678 0 1 0 .002-1.357.678.678 0 0 0-.002 1.357Zm3.21-1.693a.77.77 0 1 1-1.542-.002.77.77 0 0 1 1.542.002Zm-.186 3.232a.925.925 0 1 0-.926-.924c0 .51.415.924.926.924Zm-2.19-.185a.77.77 0 1 1-1.542-.002.77.77 0 0 1 1.541.002Zm-3.396.739a.678.678 0 1 0 .002-1.357.678.678 0 0 0-.002 1.357Zm.802 1.354a.77.77 0 1 1-1.54-.001.77.77 0 0 1 1.54.002Zm2.377 1.17a.925.925 0 1 0 0-1.847.925.925 0 1 0 0 1.847Zm4.753-1.477c0 .595-.483 1.077-1.08 1.077a1.079 1.079 0 1 1 0-2.155c.597 0 1.08.483 1.08 1.078Zm1.08 3.755c.682 0 1.235-.551 1.235-1.231a1.234 1.234 0 0 0-2.469 0c0 .68.553 1.231 1.234 1.231Zm-3.456-.707c0 .595-.484 1.077-1.08 1.077a1.078 1.078 0 1 1 0-2.155c.596 0 1.08.482 1.08 1.078ZM9.35 26.55a1.078 1.078 0 1 0 0-2.155 1.079 1.079 0 1 0 0 2.155Zm3.365 1.478c0 .68-.553 1.231-1.235 1.231a1.233 1.233 0 0 1-1.235-1.231c0-.68.553-1.231 1.235-1.231s1.235.551 1.235 1.231Zm4.444 1.724c.802 0 1.451-.648 1.451-1.447s-.65-1.447-1.45-1.447c-.802 0-1.451.648-1.451 1.447 0 .8.65 1.447 1.45 1.447Zm-1.883-3.818c0 .68-.552 1.232-1.234 1.232a1.233 1.233 0 0 1-1.235-1.232c0-.68.553-1.231 1.235-1.231s1.234.551 1.234 1.231Zm4.26.74a1.448 1.448 0 1 0 0-2.894c-.801 0-1.45.648-1.45 1.447s.649 1.447 1.45 1.447ZM8.981 22.98c0 .51-.414.924-.926.924a.925.925 0 1 1 .926-.924Z" clip-rule="evenodd"/>
</svg>
